!! 00000] TT[WS
!!!OTL: Laoxi diao
!!!ARE: Asia, China, Shanxi Lishan
!! Ethnic Group: Han
!! WI, 253 (1)
!!!SCT: J0299
!!!YEM: Copyright 1995, estate of Helmut Schaffrath.
**kern
*ICvox
*Ivox
!! Mixed meters:  2/4; 3/8
*M3/8
*k[b-]
*F:
{8f
8d
8cc
8g
=1
8g
16f
16d
8f
8d
=2
2cc
=3
8a
8cc
8a
16g
16f}
=4
{8f
16g
16f
8d
8c
=5
8r
8dd
8cc
16a
16g
=6
8a
8cc
8g
8d
=7
8f
16g
16f
4c}
=8
{8cc
8cc
8.dd
16cc
=9
4cc
8cc
8a
=10
8g
8cc
8g
8a
=11
2g}
=12
{4g
4cc
=13
8a
8g
8a
8cc
=14
8.d
16c
4f
=15
8f
8g
4cc}
=16
{8cc
8cc
8a
=17
8cc
8g
8cc
=18
8cc
8a
8a
=19
*M2/4
16g
8.d
8.f
16g
=20
8a
8cc
8g
8d
=21
8f
16g
16f
4c}
==
!!!AGN: Xiaodiao, Chundiao. XÅshi, Sichun
!!!ONB: ESAC (Essen Associative Code) Database: CHINA
!!!AMT: irregular
!!!AIN: vox
!!!EED: Helmut Schaffrath
!!!EEV: 1.0
*-
